X:1
T:Sarabande
T:Sarabande
T:Jacques Champion de Chambonnières (1602-1672)
C:Jacques Champion de Chambonnières (1602-1672)
%%score { ( 1 4 5 ) | ( 2 3 ) }
L:1/8
Q:1/4=64
M:3/4
K:C
V:1 treble nm="Cembalo" snm="Cbl."
V:4 treble 
V:5 treble 
V:2 bass 
V:3 bass 
V:1
 c2 c3 _B | A6 | G2 G3 F | E6 | e2 e3 f | g3 fed | e2 c3 B/c/ | B4 c2 | d6- | d2 cB A2 | B2 A3 G | %11
 G6 :| d2 d3 d | g2 c2 d2 | e2 f3 e/f/ | e4 x2 | e2 e3 e | A2 d2 d2- | de T^c3 =B/c/ | d4 x2 |: %20
 A2 A3 =B | c6 | c2 c3 =B | [EGc]6 :| %24
V:2
 z2 [E,G,]4 | z2 z C, F,2 | E,2 D,4 | z2 z G,, C,2- | C,2 G,4 | G,6 | G,2 A,4 | z2 G,2 A,2 | %8
 z2 B,4 | z2 A,4 | G,2 x4 | z2 z D, G,2 :| z2 B,4 | C2 A,2 B,2 | ^C2 D4 | z2 z B,^CD | z2 A,4 | %17
 A,4 G,2 | F,2 E,4 | z2 z A,, D,2 |: z2 C,2 D,2 | z2 E,4 | F,2 D,4 | C,4 C,2 :| %24
V:3
 C,6 | F,,6 | G,,6 | C,,6- | C,,2 C,4 | B,,6 | C,2 A,,4 | E,6 | B,,4 C,2 | D,6- | D,2 D,,4 | %11
 G,,4 x2 :| G,4 F,2 | E,2 F,4 | E,2 D,4 | A,6 | ^C,6 | D,4 G,,2- | G,,2 A,,4 | D,,6 |: F,,4 x2 | %21
 C,6 | F,,2 G,,4 | z2 C,,4 :| %24
V:4
 x6 | z F C4 | C2 =B,4 | z C G,4 | x6 | x6 | x6 | G6- | G2 D3 E | ^F6 | G2 ^F4 | z D B,4 :| x6 | %13
 x6 | x6 | z ^c A4 | z2 E4 | F4 _B2- | B2 z2 z2 | z A F4 |: x6 | G6 | A2 G4 | x6 :| %24
V:5
 x6 | x6 | x6 | x6 | x6 | x6 | x6 | x6 | x6 | x6 | x2 D4 | x6 :| x6 | x6 | x6 | x6 | x6 | x6 | x6 | %19
 x6 |: x6 | x6 | x6 | x6 :| %24

